!!!!SEGMENT: pl-kk--kk-i-58--002_anonim--missa-et-in-terra.krn
!!!cenid: 17xx:2241
!!!COM: Anonim
!!!COM-rismID: pe30004985
!!!CDT:
!!!CNT:
!!!OPR: Missa
!!!OTL: Et in terra
!!!OMV: 002
!!!PDT:
!!!AGN: Sacred; Mass
!!!SMS-siglum: PL-Kk
!!!SMS-shelfmark: Kk.I.58
!!!SMS-shelfwork: 001-002 M
!!!SMS-variant: Baſso.: PL-Kk Kk.I.58:0019-0020
!!!SMS-altvar: Baſso.: PL-Kk Kk.I.58:0024-0025
!!!NIFC-rismSourceID: 1001156758
!!!NIFC-rismChildID: 1001156758
!!!NIFC-islandoraID: pl-kk:15653
!!!URL-pdf-islandora: https://repozytorium.nifc.pl/islandora/object/pl-kk%3A15653/datastream/PDF/view
!!!URL-scan:
!!!ONB-nifc: UWAGA: części Mszy: 1. Kyrie, 2. Et in terra, 3. Sanctus, 4. Benedictus, 5. Agnus Dei.
!!!AIN: 1 alto 1 empty 1 tenor 1 vox
!!!key:
**kern	**text	**kern	**text	**kern	**text	**kern	**text
*part4	*part4	*part3	*part3	*part2	*part2	*part1	*part1
*staff4	*staff4	*staff3	*staff3	*staff2	*staff2	*staff1	*staff1
*Iempty	*	*Itenor	*	*Ialto	*	*Ivox	*
*I"Baſso.	*	*I"Tenore	*	*I"Alto.	*	*I"Canto.	*
*I'B	*	*I'T	*	*I'A	*	*I'S	*
*clefF4	*	*clefC4	*	*clefC3	*	*clefC1	*
*k[b-]	*	*k[b-]	*	*k[b-]	*	*k[b-]	*
*F:	*	*F:	*	*F:	*	*F:	*
*M2/1	*	*M2/1	*	*M2/1	*	*M2/1	*
*met(c|)	*	*met(c|)	*	*met(c|)	*	*met(c|)	*
=1-	=1-	=1-	=1-	=1-	=1-	=1-	=1-
!LO:TX:a:t=P:problem=w źrodle znaki przykluczowe B- i BB-, zapisane jeden nad drugim	!	!	!	!	!	!	!
1F	Et	1A	Et	1c	Et	1f	Et
1F	in	(<2A/	in	2c/	in	2f/	in
!	!	!LO:TX:t=P:problem=kreska pseudotaktowa	!	!	!	!	!
.	.	2Bn/)	.	(<2d/	.	(>2g/	.
=2-	=2-	=2-	=2-	=2-	=2-	=2-	=2-
1E	ter-	1c	ter-	1e)	ter-	1g)	ter-
!LO:TX:t=P:problem=kreska pseudotaktowa	!	!LO:TX:t=P:problem=kreska pseudotaktowa	!	!LO:TX:t=P:problem=kreska pseudotaktowa	!	!LO:TX:t=P:problem=kreska pseudotaktowa	!
1C	-ra	1c	-ra	1e	-ra	1g	-ra
=3-	=3-	=3-	=3-	=3-	=3-	=3-	=3-
2r	.	0r	.	00r	.	00r	.
*2\right	*	*	*	*	*	*	*
2F\	in	.	.	.	.	.	.
(>4E\	ter-	.	.	.	.	.	.
4F\)	.	.	.	.	.	.	.
(>4E\	-ra	.	.	.	.	.	.
4D\)	.	.	.	.	.	.	.
=4-	=4-	=4-	=4-	=4-	=4-	=4-	=4-
2C/	.	2r	.	.	.	.	.
*	*	*2\right	*	*	*	*	*
!LO:TX:t=P:problem=kreska pseudotaktowa	!	!LO:TX:t=P:problem=kreska pseudotaktowa	!	!	!	!	!
2C/	.	2c\	in	.	.	.	.
2rC	.	4A/	ter-	.	.	.	.
.	.	4B-y/	.	.	.	.	.
2C/	in	4A/	.	.	.	.	.
.	.	4G/	.	.	.	.	.
=5-	=5-	=5-	=5-	=5-	=5-	=5-	=5-
1D	ter-	2F/	-ra	2r	.	0r	.
*	*	*	*	*2\right	*	*	*
!	!	!LO:TX:t=P:problem=kreska pseudotaktowa	!	!	!	!	!
.	.	2F/	.	2f\	in	.	.
!LO:TX:t=P:problem=kreska pseudotaktowa	!	!	!	!	!	!	!
1C	-ra	2rF	.	(>4e\	ter-	.	.
.	.	.	.	4f\)	.	.	.
.	.	2G/	in	(>4e\	.	.	.
!	!	!	!	!LO:TX:t=P:problem=kreska pseudotaktowa	!	!	!
.	.	.	.	4d\)	.	.	.
=6-	=6-	=6-	=6-	=6-	=6-	=6-	=6-
*	*	*	*	*	*	*2\right	*
2rC	.	2A/	ter-	2c/	.	2r	.
*	*ij	*	*	*	*	*	*
2C/	in	2G/	.	2c/	-ra	2cc\	in
!	!	!LO:TX:t=P:problem=kreska pseudotaktowa	!	!	!	!	!
2F\	ter-	1A	-ra	2r	.	(>4a\	ter-
.	.	.	.	.	.	4b-\)	.
!LO:TX:t=P:problem=kreska pseudotaktowa	!	!	!	!	!	!	!
2F\	-ra	.	.	2c/	in	(>4a\	.
*	*Xij	*	*	*	*	*	*
.	.	.	.	.	.	4g\)	.
=7-	=7-	=7-	=7-	=7-	=7-	=7-	=7-
2r	.	2r	.	1d	ter-	2f/	.
!	!	!	!	!	!	!LO:TX:t=P:problem=kreska pseudotaktowa	!
2D\	in	2A/	in-	.	.	2f/	-ra
!	!	!LO:TX:t=P:problem=kreska pseudotaktowa	!	!LO:TX:t=P:problem=kreska pseudotaktowa	!	!	!
4E\	ter-	1G	-ter-	1c	-ra	2r	.
4F\	.	.	.	.	.	.	.
*	*	*	*	*	*	*	*ij
4E\	.	.	.	.	.	2g/	in
4D\	-ra	.	.	.	.	.	.
!	!	!LO:LB:g=original	!	!	!	!	!
=8-	=8-	=8-	=8-	=8-	=8-	=8-	=8-
2C/	.	2G/	.	2r	.	2e/	ter-
!	!	!	!	!	!	!LO:TX:t=P:problem=kreska pseudotaktowa	!
4C/	.	2c\	.	2e\	in	2e/	-ra
*	*	*	*	*	*	*	*Xij
!LO:TX:t=P:problem=kreska pseudotaktowa	!	!	!	!	!	!	!
4C/	in	.	.	.	.	.	.
!LO:LB:g=original	!	!	!	!	!	!	!
2F\	ter-	2A/	.	(>2e\	ter-	2r	.
!	!	!	!	!LO:TX:t=P:problem=kreska pseudotaktowa	!	!	!
2G\	-ra	2Bn\	.	2d\)	.	2g\	in
!	!	!	!	!LO:LB:g=original	!	!	!
=9-	=9-	=9-	=9-	=9-	=9-	=9-	=9-
2C/	pax	1c	.	2e\	.	2g\	ter-
2F\	in	.	.	1f	.	2a\	.
!	!	!LO:TX:t=P:problem=kreska pseudotaktowa	!	!	!	!	!
!	!	!	!	!	!	!LO:LB:g=original	!
2.C/	ter-	1c	-ra	.	.	2.g/	.
.	.	.	.	2e\	-ra	.	.
4C/	-ra	.	.	.	.	4g/	-ra
=10-	=10-	=10-	=10-	=10-	=10-	=10-	=10-
!LO:TX:t=P:problem=kreska pseudotaktowa	!	!	!	!LO:TX:t=P:problem=kreska pseudotaktowa	!	!	!
1F	pax	1c	pax	1f	pax	1a	pax
2.F\	pax	2.c\	pax	2.f\	pax	2.a\	pax
!	!	!LO:TX:t=P:problem=kreska pseudotaktowa	!	!	!	!LO:TX:t=P:problem=kreska pseudotaktowa	!
4F\	ho-	4c\	ho-	4f\	ho-	4a\	ho-
=11-	=11-	=11-	=11-	=11-	=11-	=11-	=11-
2D\	-mi-	2c\	-mi-	2f\	-mi-	2a\	-mi-
4D\	-ni-	4c\	-ni-	4f\	-mi-	4a\	-ni-
!	!	!	!	!LO:TX:t=P:problem=kreska pseudotaktowa	!	!	!
4D\	-b(us)	4c\	-bus	4f\	-b(us)	4a\	-bus
2G\	bo-	2Bn/	bo-	4d\	bo-	2g/	bo-
.	.	.	.	4d\	-nae	.	.
!LO:TX:t=P:problem=kreska pseudotaktowa	!	!LO:TX:t=P:problem=kreska pseudotaktowa	!	!	!	!LO:TX:t=P:problem=kreska pseudotaktowa	!
2G\	-nae	2B/	-nae	4d\	vo-	2g/	-nae
.	.	.	.	4d\	-lun-	.	.
=12-	=12-	=12-	=12-	=12-	=12-	=12-	=12-
(>4G\	vo-	4Bny\	bo-	2d/	-ta-	4g/	bo-
4F\)	.	4B\	-nae	.	.	4g/	-nae
!	!	!	!	!LO:TX:t=P:problem=kreska pseudotaktowa	!	!	!
(>4E\	.	4B\	vo-	2d/	-tis	4g/	vo-
4D\)	.	4B\	-lun-	.	.	4g/	-lun-
*	*	*	*	*	*ij	*	*
2C/	.	1c	.	4e\	bo-	2g/	-ta-
.	.	.	.	4e\	-nae	.	.
!	!	!	!	!	!	!LO:TX:t=P:problem=kreska pseudotaktowa	!
2F\	-lun-	.	.	4e\	vo-	2a/	.
.	.	.	.	4e\	-lun-	.	.
=13-	=13-	=13-	=13-	=13-	=13-	=13-	=13-
1G	-ta-	(>2c\	.	1d	-ta-	1g	.
.	.	2Bn\)	-tis	.	.	.	.
!LO:TX:t=P:problem=kreska pseudotaktowa	!	!LO:TX:t=P:problem=kreska pseudotaktowa	!	!LO:TX:t=P:problem=kreska pseudotaktowa	!	!	!
1C	-tis	1c	.	1e	-tis	2g,</	-tis
*	*	*	*	*	*Xij	*	*
!	!	!	!	!	!	!LO:TX:t=P:problem=kreska pseudotaktowa	!
.	.	.	.	.	.	2g/	lau-
!	!	!LO:LB:g=original	!	!	!	!	!
=14-	=14-	=14-	=14-	=14-	=14-	=14-	=14-
0r	.	1r	.	2r	.	4cc\	-da-
.	.	.	.	.	.	4dd\	.
.	.	.	.	2c/	Lau-	4cc\	.
.	.	.	.	.	.	4b-\	.
!	!	!	!	!LO:PB:g=original	!	!	!
.	.	2r	.	4f\	-da-	2a\	.
.	.	.	.	4a\	.	.	.
.	.	2G/	Lau-	4g\	.	(>4b-\ 4f\	-mus
!	!	!	!	!	!	!LO:TX:t=P:problem=kreska pseudotaktowa	!
.	.	.	.	4f\	.	4a\)	.
!	!	!	!	!	!	!LO:LB:g=original	!
=15-	=15-	=15-	=15-	=15-	=15-	=15-	=15-
2r	.	4c\	-da-	2e\	.	1g	Te
.	.	4d\	.	.	.	.	.
2C/	Lau-	4c\	.	(>4e\	-mus	.	.
.	.	4B-y\	.	4d\)	.	.	.
!	!	!	!	!LO:TX:t=P:problem=kreska pseudotaktowa	!	!	!
4F\	-da-	2A/	.	1c	Te	2re	.
4A\	.	.	.	.	.	.	.
4G\	.	4B-/	-mus	.	.	2f/	Lau-
4F\	.	4A/	.	.	.	.	.
=16-	=16-	=16-	=16-	=16-	=16-	=16-	=16-
!	!	!LO:TX:t=P:problem=kreska pseudotaktowa	!	!	!	!	!
2E\	.	1G	Te	2r	.	4g/	-da-
.	.	.	.	.	.	4a/	.
*	*	*	*	*	*ij	*	*
!LO:TX:t=P:problem=kreska pseudotaktowa	!	!	!	!	!	!	!
2E\	-mus	.	.	2c\	Lau-	4g/	.
.	.	.	.	.	.	4f/	.
!LO:LB:g=original	!	!	!	!	!	!	!
2rC	.	1r	.	4c\	-da-	2e/	.
.	.	.	.	4d\	.	.	.
!	!	!	!	!	!	!LO:TX:t=P:problem=kreska pseudotaktowa	!
2C/	lau-	.	.	4c\	.	2e/	-mus
.	.	.	.	4B-/	.	.	.
=17-	=17-	=17-	=17-	=17-	=17-	=17-	=17-
4D/	.	2r	.	2A/	.	1f	te
4E/	.	.	.	.	.	.	.
4D/	.	2F/	lau-	2A/	-mus	.	.
4C/	.	.	.	.	.	.	.
!	!	!	!	!LO:TX:t=P:problem=kreska pseudotaktowa	!	!	!
2BB-/	-da-	4G/	-da-	1d	Te	2b-\	be-
*	*	*	*	*	*Xij	*	*
.	.	4A/	.	.	.	.	.
!LO:TX:t=P:problem=kreska pseudotaktowa	!	!	!	!	!	!	!
2BB-/	-mus	4B-/	.	.	.	2b-\	-ne-
.	.	4A/	.	.	.	.	.
=18-	=18-	=18-	=18-	=18-	=18-	=18-	=18-
1C	Te	2G/	.	2e\	be-	2b-\	-di-
!	!	!	!	!	!	!LO:TX:a:t=P:problem=♭ above	!
.	.	2c\	-mus	2e\	-ne-	4b-X\	-ci-
.	.	.	.	.	.	4b-\	-mus
!	!	!LO:TX:t=P:problem=kreska pseudotaktowa	!	!	!	!LO:TX:t=P:problem=kreska pseudotaktowa	!
2F\	be-	1c	Te	2f\	-di-	1a	Te
2F\	-ne-	.	.	4f\	-ci-	.	.
.	.	.	.	4f\	-mus	.	.
=19-	=19-	=19-	=19-	=19-	=19-	=19-	=19-
!	!	!	!	!LO:TX:t=P:problem=kreska pseudotaktowa	!	!	!
2D/	-di-	2d\	be-	1f	Te	2a\	a-
4D/	-ci-	2d\	-ne-	.	.	2a\	-do-
4D/	-mus	.	.	.	.	.	.
!LO:TX:t=P:problem=kreska pseudotaktowa	!	!	!	!	!	!	!
1G	Te	2Bn\	-di-	2d\	a-	1g	-ra-
.	.	4B\	-ci-	2d\	-do-	.	.
.	.	4B\	-mus	.	.	.	.
=20-	=20-	=20-	=20-	=20-	=20-	=20-	=20-
!	!	!LO:TX:t=P:problem=kreska pseudotaktowa	!	!	!	!	!
2E\	a-	1c	Te	1e	-ra-	1g	-mus
2E\	-do-	.	.	.	.	.	.
!	!	!LO:PB:g=original	!	!LO:TX:t=P:problem=kreska pseudotaktowa	!	!	!
1E	-ra-	2c\	a-	1e	-mus	2g/	a-
.	.	2c\	-do-	.	.	2g/	-do-
!	!	!	!	!LO:LB:g=original	!	!	!
=21-	=21-	=21-	=21-	=21-	=21-	=21-	=21-
!LO:TX:t=P:problem=kreska pseudotaktowa	!	!	!	!	!	!	!
1F	-mus	1c	-ra-	2f\	a-	2a/	-ra-
.	.	.	.	2f\	-do-	2a/	-mus
!	!	!LO:TX:t=P:problem=kreska pseudotaktowa	!	!	!	!	!
!	!	!	!	!	!	!LO:PB:g=original	!
2D\	a-	1c	-mus	1f	-ra-	2a\	ad-
2D\	-do-	.	.	.	.	2a\	-o-
=22-	=22-	=22-	=22-	=22-	=22-	=22-	=22-
2G\	-ra-	2B-y\	a-	2d\	-mus	1g	-ra-
!LO:TX:t=P:problem=kreska pseudotaktowa	!	!	!	!	!	!	!
2C/	-mus	2B-\	-ro-	4e\	a-	.	.
.	.	.	.	4d\	-do-	.	.
2F\	Te	2A\	-ra-	2c/	-ra-	2f/	-mus
!	!	!LO:TX:t=P:problem=kreska pseudotaktowa	!	!	!	!	!
4BB-/	a-	2B-\	.	2d/	.	4f/	a-
4BB-/	-do-	.	.	.	.	4f/	-do-
=23-	=23-	=23-	=23-	=23-	=23-	=23-	=23-
2C/	-ra-	2G/	.	1c	.	2e/	-ra-
2F\	.	2A/	.	.	.	1f	.
2.C/	-mus	2.G/	.	2c/	.	.	.
!	!	!	!	!LO:TX:t=P:problem=kreska pseudotaktowa	!	!LO:TX:t=P:problem=kreska pseudotaktowa	!
.	.	.	.	2c/	-mus	2e/	-mus
!LO:TX:t=P:problem=kreska pseudotaktowa	!	!LO:TX:t=P:problem=kreska pseudotaktowa	!	!	!	!	!
4C/	.	4G/	-mus	.	.	.	.
!LO:LB:g=original	!	!	!	!	!	!	!
=24-	=24-	=24-	=24-	=24-	=24-	=24-	=24-
4F,<\	Te	4A,</	Te	1[<c	Te	[>1f,<	Te
4F\	glo-	4A/	glo-	.	.	.	.
4F\	-ri-	4A/	-ri-	.	.	.	.
4F\	-fi-	4A/	-fi-	.	.	.	.
2F\	-ca-	2A/	-ca-	4c]/	.	4f/]	.
.	.	.	.	4d\	glo-	4f/	glo-
!	!	!LO:TX:t=P:problem=kreska pseudotaktowa	!	!	!	!	!
2D\	-mus	2A/	-mus	4d\	-ri-	4f/	-ri-
.	.	.	.	4d\	-fi-	4f/	-fi-
=25-	=25-	=25-	=25-	=25-	=25-	=25-	=25-
!LO:TX:t=P:problem=kreska pseudotaktowa	!	!	!	!	!	!	!
1G	Te	[>1B-	Te	2d\	-ca-	2g\	-ca-
.	.	.	.	2d\	-mus	2g\	-mus
!	!	!	!	!	!	!LO:TX:t=P:problem=kreska pseudotaktowa	!
!	!	!	!	!LO:TX:t=P:problem=kreska pseudotaktowa	!	!	!
4G\	Te	4B-],<	.	[>1e	Te	[>1g	Te
4C/	glo-	4B-\	glo-	.	.	.	.
4C/	-ri-	4B-\	-ri-	.	.	.	.
!LO:TX:t=P:problem=kreska pseudotaktowa	!	!LO:TX:t=P:problem=kreska pseudotaktowa	!	!	!	!	!
4C/	-fi-	4B-\	-fi-	.	.	.	.
!	!	!LO:LB:g=original	!	!	!	!	!
=26-	=26-	=26-	=26-	=26-	=26-	=26-	=26-
4F\	-ca-	2A/	-ca-	4e],<	.	4g/]	.
4E\	.	.	.	4e\	glo-	4g/	glo-
4D\	.	2A/	-mus	4e\	-ri-	4g/	-ri-
4C\	.	.	.	4e\	-fi-	4g/	-fi-
2D/	.	4A/	Te	2d\	-ca-	2f/	-ca-
.	.	4A/	glo-	.	.	.	.
!LO:TX:t=P:problem=kreska pseudotaktowa	!	!	!	!LO:TX:t=P:problem=kreska pseudotaktowa	!	!LO:TX:t=P:problem=kreska pseudotaktowa	!
2D/	-mus	4A/	-ri-	2d\	-mus	2f/	-m(us)
!	!	!LO:TX:t=P:problem=kreska pseudotaktowa	!	!	!	!	!
.	.	4A/	-fi-	.	.	.	.
!	!	!	!	!LO:LB:g=original	!	!	!
=27-	=27-	=27-	=27-	=27-	=27-	=27-	=27-
4D/	Te	2A/	-ca-	4d,<\	Te	4f,</	Te
*	*	*	*	*	*ij	*	*
4D/	glo-	.	.	4f\	glo-	4a\	glo-
4D/	-ri-	1d	.	4f\	-ri-	4a\	-ri-
4D/	-fi-	.	.	4f\	-fi-	4a\	-fi-
!	!	!	!	!	!	!LO:LB:g=original	!
2E\	-ca-	.	.	2Bn/	-ca-	(>2g#X/	-ca-
2AA/	.	2c\	.	2e\	.	2a\)	.
=28-	=28-	=28-	=28-	=28-	=28-	=28-	=28-
2.E\	.	2.Bn\	-mus	2e\	.	2a/	-mus
.	.	.	.	2e\	-mus	2g#X/	.
4E\	-mus	4B\	.	.	.	.	.
!LO:TX:t=P:problem=podwójna kreska pseudotaktowa	!	!LO:TX:t=P:problem=podwójna kreska pseudotaktowa	!	!LO:TX:t=P:problem=podwójna kreska pseudotaktowa	!	!LO:TX:t=P:problem=podwójna kreska pseudotaktowa	!
1AA;>	Te	1c;>	Te	1e;>	Te	1a;>	Te.
*	*	*	*	*	*Xij	*	*
=29||-	=29||-	=29||-	=29||-	=29||-	=29||-	=29||-	=29||-
2.A\	Gra-	2.c\	Gra-	1e	Gra-	2.a\	Gra-
4A\	-ti-	4c\	-ti-	.	.	4a\	-ti-
!	!	!LO:TX:t=P:problem=kreska pseudotaktowa	!	!	!	!LO:TX:t=P:problem=kreska pseudotaktowa	!
1A	-as	1c	-as	2e\	-ti-	1a	-as
.	.	.	.	2e\	-as	.	.
!LO:LB:g=original	!	!	!	!	!	!	!
=30-	=30-	=30-	=30-	=30-	=30-	=30-	=30-
2.F#X\	a-	2.c\	a-	2.d\	a-	2.a\	a-
4F#\	-gi-	4c\	-gi-	4d\	-gi-	4a\	-gi-
!	!	!LO:TX:t=P:problem=kreska pseudotaktowa	!	!LO:TX:t=P:problem=kreska pseudotaktowa	!	!LO:TX:t=P:problem=kreska pseudotaktowa	!
1G	-mus	1Bn	-mus	1d	-mus	1gny	-mus
=31-	=31-	=31-	=31-	=31-	=31-	=31-	=31-
*	*	*	*	*	*ij	*	*
2.G\	gra-	2.B-X\	gra-	2.d\	Gra-	2.g/	gra-
4G\	-ti-	4B-\	-ti-	4d\	-ti-	4g/	-ti-
!	!	!	!	!LO:TX:t=P:problem=kreska pseudotaktowa	!	!	!
1G	-as	1B-	-as	1d	-as	2g/	-as
!	!	!	!	!	!	!LO:TX:t=P:problem=kreska pseudotaktowa	!
.	.	.	.	.	.	2g/	.
=32-	=32-	=32-	=32-	=32-	=32-	=32-	=32-
2.E\	a-	2.B-\	a-	2.d\	a-	2.g/	a-
4E\	-gi-	4B-\	-gi-	4d\	-gi-	4g/	-gi-
!LO:TX:t=P:problem=kreska pseudotaktowa	!	!LO:TX:t=P:problem=kreska pseudotaktowa	!	!LO:TX:t=P:problem=kreska pseudotaktowa	!	!LO:TX:t=P:problem=kreska pseudotaktowa	!
1Fny	-mus	1A	-mus	1c	-mus	1f	-mus
*	*	*	*	*	*Xij	*	*
!	!	!LO:LB:g=original	!	!	!	!	!
=33-	=33-	=33-	=33-	=33-	=33-	=33-	=33-
*	*ij	*	*ij	*	*	*	*ij
2F\	gra-	2A/	gra-	2d\	gra-	2f/	gra-
4D/	-ti-	4A/	-ti-	4d\	-ti-	4f/	-ti-
4D/	-as	4A/	-as	4d\	-as	4f/	-as
!	!	!	!	!LO:LB:g=original	!	!	!
2C#X/	a-	2B-\	a-	2e\	a-	2g/	a-
4C#/	-gi-	4B-\	-gi-	4e\	-gi-	4g/	-gi-
!	!	!	!	!LO:TX:t=P:problem=kreska pseudotaktowa	!	!LO:TX:t=P:problem=kreska pseudotaktowa	!
4C#/	-mus	4B-\	-mus	4e\	-mus	4g/	-mus
*	*Xij	*	*Xij	*	*	*	*Xij
!	!	!	!	!	!	!LO:LB:g=original	!
=34-	=34-	=34-	=34-	=34-	=34-	=34-	=34-
!	!	!LO:TX:t=P:problem=kreska pseudotaktowa	!	!	!	!	!
2D/	Ti-	1A	Ti-	(>2d\	Ti-	2f/	Ti-
2C/ny	.	.	.	(>2e\)	.	1a	.
1BB-X	.	1d	.	(>2f\)	.	.	.
.	.	.	.	2d\)	.	2g/	.
=35-	=35-	=35-	=35-	=35-	=35-	=35-	=35-
!LO:TX:t=P:problem=kreska pseudotaktowa	!	!LO:TX:t=P:problem=kreska pseudotaktowa	!	!LO:TX:t=P:problem=kreska pseudotaktowa	!	!	!
1AA	-bi	1c#X	-bi	1e	-bi	1a,<	-bi
1D	pro-	1d	p(ro-	1f	pro-	1a	pro-
=36-	=36-	=36-	=36-	=36-	=36-	=36-	=36-
2D/	-pter	1B-	-pte)r	1e	-p(te)r	1g	-p(te)r
2C#X/	.	.	.	.	.	.	.
2D/	ma-	2A/	ma-	2d\	ma-	2f/	ma-
!LO:TX:t=P:problem=kreska pseudotaktowa	!	!	!	!	!	!LO:TX:t=P:problem=kreska pseudotaktowa	!
2D/	-gnam	2A/	-gn(am)	2f\	-gn(am)	2a/	-gnam
!LO:PB:g=original	!	!	!	!	!	!	!
=37-	=37-	=37-	=37-	=37-	=37-	=37-	=37-
2.A\	Glo-	2.c#X\	Glo-	2.e\	glo-	2.a\	glo-
4A\	-ri-	4c#\	-ri-	4e\	-ri-	4a\	-ri-
!LO:TX:t=P:problem=kreska pseudotaktowa	!	!LO:TX:t=P:problem=kreska pseudotaktowa	!	!LO:TX:t=P:problem=kreska pseudotaktowa	!	!LO:TX:t=P:problem=kreska pseudotaktowa	!
1A	-am	1c#	-am	1e	-am	1a	-am
=38-	=38-	=38-	=38-	=38-	=38-	=38-	=38-
4D\	pro-	4d\	p(ro-	4f\	p(ro-	4a\	p(ro-
4D\	-p(te)r	4d\	-pte)r	4f\	-pte)r	4a\	-pte)r
4D\	ma-	4d\	ma-	4f\	ma-	4a\	ma-
4D\	-gn(am)	4d\	-gn(am)	4f\	-gn(am)	4a\	-gn(am)
2G\	glo-	2d\	Glo-	2g\	glo-	2b-\	glo-
4G\	-ri-	4d\	-ri-	4g\	-ri-	4b-\	-ri-
!	!	!LO:TX:t=P:problem=kreska pseudotaktowa	!	!	!	!LO:TX:t=P:problem=kreska pseudotaktowa	!
4G\	-am	4d\	-am	4g\	-(am)	4b-\	-am
!	!	!LO:LB:g=original	!	!	!	!	!
=39-	=39-	=39-	=39-	=39-	=39-	=39-	=39-
2A\	Tu-	2c#X\	Tu-	2e\	.	1a	Tu-
2D/	.	1d	.	2f\	tu-	.	.
!	!	!	!	!	!	!LO:TX:t=P:problem=kreska pseudotaktowa	!
1AA	.	.	.	1e	.	1a	.
!	!	!LO:TX:t=P:problem=kreska pseudotaktowa	!	!	!	!	!
.	.	2c#X\	.	.	.	.	.
=40-	=40-	=40-	=40-	=40-	=40-	=40-	=40-
!LO:TX:t=P:problem=podwójna kreska pseudotaktowa	!	!LO:TX:t=P:problem=podwójna kreska pseudotaktowa	!	!LO:TX:t=P:problem=podwójna kreska pseudotaktowa	!	!LO:TX:t=P:problem=podwójna kreska pseudotaktowa	!
1D;>	-am	1d;>	-am	1f;>	-am	1a;>	-am.
!	!	!	!	!LO:LB:g=original	!	!	!
=41||-	=41||-	=41||-	=41||-	=41||-	=41||-	=41||-	=41||-
!LO:TX:a:t=6	!	!	!	!LO:TX:a:t=2.	!	!	!
00r	.	00r	.	0r	.	[>1a	Do-
.	.	.	.	.	.	2a]	.
.	.	.	.	.	.	4g/	-mi-
.	.	.	.	.	.	4g/	-ne
=42-	=42-	=42-	=42-	=42-	=42-	=42-	=42-
.	.	.	.	1d	Do-	2f/	De-
!	!	!	!	!	!	!LO:TX:t=P:problem=kreska pseudotaktowa	!
.	.	.	.	.	.	2f/	-us
.	.	.	.	2d\	.	2.g/	Rex
.	.	.	.	4d\	-mi-	.	.
.	.	.	.	4d\	-ne	4g/	Cae-
=43-	=43-	=43-	=43-	=43-	=43-	=43-	=43-
0r	.	1A	Do-	2c/	DE-	2a/	-les-
!	!	!	!	!	!	!LO:TX:t=P:problem=kreska pseudotaktowa	!
.	.	.	.	2c/	-US	2f/	-tis
.	.	2A/	.	2.d\	Rex	(>4b-\	DE-
.	.	.	.	.	.	4a\)	.
.	.	4G/	-mi-	.	.	(>4b-\	-US
.	.	4G/	-ne	4d\	Cae-	4g/)	.
=44-	=44-	=44-	=44-	=44-	=44-	=44-	=44-
1D	Do-	2F/	De-	2d\	-le-	2a\	Pa-
!	!	!LO:TX:t=P:problem=kreska pseudotaktowa	!	!LO:TX:t=P:problem=kreska pseudotaktowa	!	!	!
.	.	2F/	-us	2d\	-stis	4dd\	-ter
!	!	!	!	!	!	!LO:TX:t=P:problem=kreska pseudotaktowa	!
.	.	.	.	.	.	4cc\	O-
2D/	.	2.G/	Rex	(>4e\	De-	2bn\	-mni
.	.	.	.	4d\)	.	.	.
4D/	-mi-	.	.	(>4e\	-us	2b\	po-
4D/	-ne	4G/	Cae-	4d\)	.	.	.
=45-	=45-	=45-	=45-	=45-	=45-	=45-	=45-
!	!	!	!	!	!	!LO:TX:t=P:problem=kreska pseudotaktowa	!
2C/ny	DE-	2G/	-le-	2e\	Pa-	1cc	-tens.
!	!	!LO:TX:t=P:problem=kreska pseudotaktowa	!	!	!	!	!
2C/	-US	2G/	-stis	4e\	-ter	.	.
!	!	!	!	!LO:TX:t=P:problem=kreska pseudotaktowa	!	!	!
.	.	.	.	4e\	o-	.	.
2.BB-/	Rex	2d\	De-	2.f\	-mni-	1r	.
.	.	2d\	-us	.	.	.	.
4BB-/	Cae-	.	.	4f\	-po-	.	.
=46-	=46-	=46-	=46-	=46-	=46-	=46-	=46-
!	!	!	!	!LO:TX:t=P:problem=kreska pseudotaktowa	!	!	!
2F\	-les-	2c\ny	Pa-	1f	-tens	2a\	Do-
!LO:TX:t=P:problem=kreska pseudotaktowa	!	!	!	!	!	!	!
2F\	-tis	4d\	-ter	.	.	4a\	-mi-
.	.	4c\	O-	.	.	4a\	-ne
!	!	!	!	!LO:TX:a:t=I.	!	!	!
(>4G\	De-	2.Bn\	-mni	1r	.	2g\	Fi-
4A\)	.	.	.	.	.	.	.
(>4G\	-us	.	.	.	.	2g\	-li
4F\)	.	4B\	po-	.	.	.	.
!LO:LB:g=original	!	!	!	!	!	!LO:LB:g=original	!
=47-	=47-	=47-	=47-	=47-	=47-	=47-	=47-
!	!	!LO:TX:t=P:problem=kreska pseudotaktowa	!	!	!	!	!
2E\	Pa-	1c	-tens	2e\	Do-	2g/	u-
4E\	-ter	.	.	4e\	-mi-	2g/	-ni-
4E\	o-	.	.	4e\	-ne	.	.
!	!	!LO:LB:g=original	!	!LO:LB:g=original	!	!	!
2.F\	-mni-	1r	.	2c/	Fi-	2.a/	-ge-
.	.	.	.	2c/	-li	.	.
4F\	-po-	.	.	.	.	4a/	-ni-
=48-	=48-	=48-	=48-	=48-	=48-	=48-	=48-
!LO:TX:t=P:problem=kreska pseudotaktowa	!	!	!	!	!	!LO:TX:t=P:problem=kreska pseudotaktowa	!
1F	-tens	2A/	Do-	2c/	u-	1f	-te
!	!	!	!	!LO:TX:t=P:problem=kreska pseudotaktowa	!	!	!
.	.	4A/	-mi-	2c/	-ni-	.	.
.	.	4A/	-ne	.	.	.	.
!LO:TX:t=P:problem=kreska pseudotaktowa	!	!	!	!	!	!	!
1r	.	2A/	Fi-	2.d\	-ge-	2b-y\	JE-
.	.	2G/	-li	.	.	(>1b-\	-SU
!	!	!	!	!LO:TX:t=P:problem=kreska pseudotaktowa	!	!	!
.	.	.	.	4e\	-ni-	.	.
=49-	=49-	=49-	=49-	=49-	=49-	=49-	=49-
!	!	!	!	!LO:TX:t=P:problem=kreska pseudotaktowa	!	!	!
2D/	Do-	(>4F/	U-	1f	-te	.	.
.	.	4G/)	.	.	.	.	.
!	!	!	!	!	!	!LO:TX:t=P:problem=kreska pseudotaktowa	!
4D/	-mi-	(>4A/	-ni	.	.	2a\)	.
4D/	-ne	4B-/)ny	.	.	.	.	.
2E/	Fi-	2.c\	ge-	2e\	JE-	1g	Chri-
2C/	-li	.	.	(>1e\	.	.	.
.	.	4c\	-ni-	.	.	.	.
=50-	=50-	=50-	=50-	=50-	=50-	=50-	=50-
!	!	!LO:TX:t=P:problem=kreska pseudotaktowa	!	!	!	!LO:TX:t=P:problem=kreska pseudotaktowa	!
2F\	U-	1A	-te	.	.	1f	-ste
!	!	!	!	!LO:TX:t=P:problem=kreska pseudotaktowa	!	!	!
2F\	-ni-	.	.	2d\)	-SU	.	.
!	!	!	!	!	!	!LO:TX:t=P:problem=kreska pseudotaktowa	!
2D\	-ge-	2B-\	JE-	1d	Chri-	1r	.
2E\	-ni-	1B-\	.	.	.	.	.
=51-	=51-	=51-	=51-	=51-	=51-	=51-	=51-
!LO:TX:t=P:problem=kreska pseudotaktowa	!	!	!	!LO:TX:t=P:problem=kreska pseudotaktowa	!	!	!
1F	-te	.	.	1c	-ste	2f/	Do-
.	.	2A\	-SU	.	.	4a\	-mi-
.	.	.	.	.	.	4b-\	-ne
2E\	JE-	1G	Chri-	1r	.	2cc\	De-
1E\	.	.	.	.	.	2cc\	-us
=52-	=52-	=52-	=52-	=52-	=52-	=52-	=52-
!	!	!LO:TX:t=P:problem=kreska pseudotaktowa	!	!	!	!	!
.	.	1F	-ste	2c/	Do-	2a\	a-
2D\	-SU	.	.	4d/	-mi-	2a\	-gnus
.	.	.	.	4e/	-ne	.	.
!	!	!LO:TX:a:t=I.	!	!	!	!	!
1D	Chri-	1r	.	2f\	De-	2bn\	DE-
.	.	.	.	2f\	-us	2b\	-I
=53-	=53-	=53-	=53-	=53-	=53-	=53-	=53-
!LO:TX:t=P:problem=kreska pseudotaktowa	!	!	!	!	!	!	!
1C	-ste	2G/	Do-	2e\	a-	2cc\	Fi-
!	!	!	!	!LO:TX:t=P:problem=kreska pseudotaktowa	!	!	!
.	.	4A/	-mi-	2e\	-gnus	4cc\	-li-
.	.	4B-/	-ne	.	.	4cc\	-us
!LO:TX:t=P:problem=kreska pseudotaktowa	!	!	!	!	!	!	!
!	!	!	!	!LO:LB:g=original	!	!LO:LB:g=original	!
1r	.	2c\	De-	2e\	De-	1g	Pa-
!	!	!LO:TX:t=P:problem=kreska pseudotaktowa	!	!	!	!	!
.	.	2c\	-us	2e\	-i	.	.
!	!	!LO:LB:g=original	!	!	!	!	!
=54-	=54-	=54-	=54-	=54-	=54-	=54-	=54-
!	!	!	!	!	!	!LO:TX:t=P:problem=kreska pseudotaktowa	!
2C/	Do-	2c\	A-	2e\	Fi-	1g	-tris
4D/	-mi-	2c\	-gnus	4e\	-li-	.	.
4E/	-ne	.	.	4e\	-us	.	.
!LO:LB:g=original	!	!	!	!	!	!	!
2F\	De-	2A/	De-	1c	Pa-	2f/	Fi-
2F\	-us	2A/	-i	.	.	4f/	-li-
.	.	.	.	.	.	4f/	-us
=55-	=55-	=55-	=55-	=55-	=55-	=55-	=55-
!	!	!	!	!LO:TX:t=P:problem=kreska pseudotaktowa	!	!	!
2F\	a-	2B-/	Fi-	1c	-tris	2g/	Pa-
!	!	!	!	!	!	!LO:TX:t=P:problem=kreska pseudotaktowa	!
2E\	-gnus	4B-/	-li-	.	.	2g/	-tris
!	!	!LO:TX:t=P:problem=kreska pseudotaktowa	!	!	!	!	!
.	.	4B-/	-us	.	.	.	.
2F\	DE-	2A/	Pa-	2c/	Fi-	1f	Fi-
!LO:TX:t=P:problem=kreska pseudotaktowa	!	!	!	!	!	!	!
2F\	-I	2A,</	-tris,	4c/	-li-	.	.
.	.	.	.	4c/	-us	.	.
=56-	=56-	=56-	=56-	=56-	=56-	=56-	=56-
2D/	Fi-	2A/	Fi-	1d	Pa-	2f/	-li-
!	!	!	!	!	!	!LO:TX:t=P:problem=kreska pseudotaktowa	!
4D/	-li-	4A/	-li-	.	.	2f/	-us
!	!	!LO:TX:t=P:problem=kreska pseudotaktowa	!	!	!	!	!
4D/	-us	4A/	-us	.	.	.	.
2G\	Pa-	2Bn\	Pa-	2d\	.	0g	Pa-
2C/	.	1c\	.	2e\	.	.	.
=57-	=57-	=57-	=57-	=57-	=57-	=57-	=57-
!LO:TX:t=P:problem=kreska pseudotaktowa	!	!	!	!LO:TX:t=P:problem=kreska pseudotaktowa	!	!	!
1G	.	.	.	1d	.	.	.
!	!	!LO:TX:t=P:problem=kreska pseudotaktowa	!	!	!	!	!
.	.	2Bny\	-tris	.	.	.	.
2C,</	-tris,	2c,<\	.	2e,<\	-tris	2g,</	-tris
2C/	Qui	2c\	Qui	2e\	Qui	2g/	Qui
=58-	=58-	=58-	=58-	=58-	=58-	=58-	=58-
!	!	!LO:TX:t=P:problem=kreska pseudotaktowa	!	!LO:TX:t=P:problem=kreska pseudotaktowa	!	!	!
1F	tol-	1c	tol-	1f	tol-	1a	tol-
2F\	-lis	2Bn\	-lis	2d\	-lis	2g/	-lis
2E\	pec-	2c\	pec-	2e\	pec-	2g/	pec-
=59-	=59-	=59-	=59-	=59-	=59-	=59-	=59-
2F\	-ca-	2A/	-ca-	2c/	-ca-	2f/	-ca-
!	!	!	!	!	!	!LO:TX:t=P:problem=kreska pseudotaktowa	!
2F\	-ta	2A/	-ta	2c/	-ta	2f/	-ta
!	!	!LO:LB:g=original	!	!	!	!	!
1D	mun-	1A	mun-	1f	Mun-	1a	Mun-
=60-	=60-	=60-	=60-	=60-	=60-	=60-	=60-
!LO:TX:t=P:problem=kreska pseudotaktowa	!	!	!	!LO:TX:t=P:problem=kreska pseudotaktowa	!	!LO:TX:t=P:problem=kreska pseudotaktowa	!
1G	-di	1B-y	-di	1d	-di	1g	-di
!	!	!	!	!LO:PB:g=original	!	!	!
2E\	mi-	2c\	mi-	2e\	mi-	2g\	mi-
2E\	-se-	2c\	-se-	2e\	-se-	2g\	-se-
!	!	!	!	!	!	!LO:LB:g=original	!
=61-	=61-	=61-	=61-	=61-	=61-	=61-	=61-
1A	-re-	1c	-re-	1e	-re-	1a	-re-
!LO:TX:t=P:problem=kreska pseudotaktowa	!	!	!	!	!	!	!
1D	-re	1c	-re	1f#X	-re	1a	-re
!LO:LB:g=original	!	!	!	!	!	!	!
=62-	=62-	=62-	=62-	=62-	=62-	=62-	=62-
!	!	!LO:TX:t=P:problem=kreska pseudotaktowa	!	!LO:TX:t=P:problem=kreska pseudotaktowa	!	!	!
1F#X	no-	1c	no-	1d	no-	1a	no-
2G\	-bis	2Bn,<\	-bis,	2d,<\	-bis	2g,</	-bis,
2G\	Qui	2B-X\	Qui	2d\	Qui	2g/	Qui
=63-	=63-	=63-	=63-	=63-	=63-	=63-	=63-
!	!	!	!	!	!	!LO:TX:t=P:problem=kreska pseudotaktowa	!
1E	tol-	1B-	tol-	1e	tol-	1g	tol-
2C#X/	-lis	2B-\	-lis	2e\	-lis	2g/	-lis
2C#/	pec-	2B-\	pec-	2e\	pec-	2g/	pec-
=64-	=64-	=64-	=64-	=64-	=64-	=64-	=64-
2D/	-ca-	2A/	-ca-	2d\	-ca-	2f/	-ca-
!	!	!LO:TX:t=P:problem=kreska pseudotaktowa	!	!	!	!LO:TX:t=P:problem=kreska pseudotaktowa	!
2D/	-ta	2A/	-ta	2d\	-ta	2f/	-ta
1BB-	mun-	2A/	Mun-	1d	mun-	2f/	mun-
.	.	2G/	-di	.	.	2g/	-di
=65-	=65-	=65-	=65-	=65-	=65-	=65-	=65-
!LO:TX:t=P:problem=kreska pseudotaktowa	!	!LO:TX:t=P:problem=kreska pseudotaktowa	!	!LO:TX:t=P:problem=kreska pseudotaktowa	!	!LO:TX:t=P:problem=kreska pseudotaktowa	!
1AA	-di	1A	.	1c#X	-di	1e	.
2.A\	Su-	2.c#X\	Sus-	2.e\	su-	2.a\	sus-
4A\	-sci-	4c#\	-ci-	4e\	-sci-	4a\	-ci-
=66-	=66-	=66-	=66-	=66-	=66-	=66-	=66-
2G\	-pe	2c#X,<\	-pe,	2e\	-pe	2a\	-pe
!	!	!	!	!	!	!LO:TX:t=P:problem=kreska pseudotaktowa	!
2G\	de-	4c#\	de-	2e\	de-	2a\	de-
*	*	*custos:d	*	*	*	*	*
!	!	!LO:TX:t=P:problem=kreska pseudotaktowa	!	!	!	!	!
.	.	4c#\	-pre-	.	.	.	.
!	!	!LO:PB:g=original	!	!	!	!	!
2F\ny	-pre-	2.d\	-ca-	2f\ny	-pre-	2a\	-pre-
4F\	-ca-	.	.	4f\	-ca-	4a\	-ca-
4F\	-ti-	4d\	-ti-	4f\	-ti-	4a\	-ti-
=67-	=67-	=67-	=67-	=67-	=67-	=67-	=67-
2F\	-o-	2Bn\	-o-	2d\	-o-	2g\	-o-
!	!	!LO:TX:t=P:problem=kreska pseudotaktowa	!	!	!	!	!
2E\	-nem	2c#X\	-nem	2e\	-nem	2a\	-nem
!	!	!	!	!LO:LB:g=original	!	!LO:TX:a:t=2	!
2D\	no-	2d\	no-	1f	no-	0a	nos-
2E\	-stram.	1d\	.	.	.	.	.
!	!	!	!	!	!	!LO:PB:g=original	!
=68-	=68-	=68-	=68-	=68-	=68-	=68-	=68-
!LO:TX:t=P:problem=kreska pseudotaktowa	!	!	!	!	!	!	!
1AA	.	.	.	1e	.	.	.
!	!	!LO:TX:t=P:problem=kreska pseudotaktowa	!	!	!	!	!
.	.	2c#X\	-stram	.	.	.	.
2D,</	.	2.d,<\	.	2f,<\	-stram	2a,<\	-stram
2D/	Qui	.	.	2f\	qui	2a\	qui
.	.	4d\	Qui	.	.	.	.
=69-	=69-	=69-	=69-	=69-	=69-	=69-	=69-
!	!	!	!	!LO:TX:t=P:problem=kreska pseudotaktowa	!	!LO:TX:t=P:problem=kreska pseudotaktowa	!
2A\	se-	1cny	se-	1e	se-	1a	se-
!LO:TX:t=P:problem=kreska pseudotaktowa	!	!	!	!	!	!	!
2A\	-des	.	.	.	.	.	.
!LO:LB:g=original	!	!	!	!	!	!	!
1A	ad	2c\	-des	2e\	-des	2a\	-des
.	.	2c\	ad	2e\	ad	2a\	ad
=70-	=70-	=70-	=70-	=70-	=70-	=70-	=70-
2F\	Dex-	2d\	dex-	2f\	dex-	2a\	dex-
4F\	-te-	4d\	-te-	4f\	-te-	4a\	-te-
!	!	!LO:TX:t=P:problem=kreska pseudotaktowa	!	!LO:TX:t=P:problem=kreska pseudotaktowa	!	!LO:TX:t=P:problem=kreska pseudotaktowa	!
4F\	-ram	4d\	-ram	4f\	-ram	4a\	-ram
1D	Pa-	1d	Pa-	1f	Pa-	1a	Pa-
=71-	=71-	=71-	=71-	=71-	=71-	=71-	=71-
2E\	-tris	2Bn\	-tris	2e,<\	-tris	2g#X/	-tris
*	*	*	*	*	*ij	*	*
!	!	!	!	!	!	!LO:TX:t=P:problem=kreska pseudotaktowa	!
2AA/	Qui	2c\	q(ui)	2e\	qui	2a\	qui
2E\	se-	1Bn	se-	1e	se-	2g#X/	se-
1E\	-des	.	.	.	.	2g#/	-des
=72-	=72-	=72-	=72-	=72-	=72-	=72-	=72-
.	.	2Bny\	-des	2e\	-des	[>2g#/	ad
!LO:TX:t=P:problem=kreska pseudotaktowa	!	!LO:TX:t=P:problem=kreska pseudotaktowa	!	!LO:TX:t=P:problem=kreska pseudotaktowa	!	!LO:TX:t=P:problem=kreska pseudotaktowa	!
2E\	ad	2B\	ad	2e\	ad	2g#/]	.
!	!	!LO:LB:g=original	!	!	!	!	!
2C/ny	Dex-	2c\	dex-	2e\	dex-	2a\	dex-
4C/	-te-	4c\	-te-	4e\	-te-	4a\	-te-
4C/	-ram	4c\	-ram	4e\	-ram	4a\	-ram
=73-	=73-	=73-	=73-	=73-	=73-	=73-	=73-
1AA	Pa-	1c	Pa-	1e	Pa-	1a	Pa-
!LO:TX:t=P:problem=kreska pseudotaktowa	!	!LO:TX:t=P:problem=kreska pseudotaktowa	!	!LO:TX:t=P:problem=kreska pseudotaktowa	!	!LO:TX:t=P:problem=kreska pseudotaktowa	!
1E	-tris	1Bn	-tris	1e	-tris	1g#X	-tris
*	*	*	*	*	*Xij	*	*
=74-	=74-	=74-	=74-	=74-	=74-	=74-	=74-
!	!	!LO:TX:t=P:problem=kreska pseudotaktowa	!	!LO:TX:t=P:problem=kreska pseudotaktowa	!	!	!
!	!	!LO:TX:a:t=I.	!	!LO:TX:a:t=2	!	!	!
1E	Mi-	1r	.	0r	.	0r	.
(>1E	.	1B-y	Mi-	.	.	.	.
!	!	!	!	!LO:LB:g=original	!	!	!
=75-	=75-	=75-	=75-	=75-	=75-	=75-	=75-
!	!	!	!	!	!	!LO:TX:t=P:problem=kreska pseudotaktowa	!
1A)	-se-	1c	-se-	1e	Mi-	1r	.
!	!	!	!	!	!	!LO:LB:g=original	!
(>1A	.	1c#X	-re-	1e	-se-	1a	mi-
=76-	=76-	=76-	=76-	=76-	=76-	=76-	=76-
!	!	!LO:TX:t=P:problem=kreska pseudotaktowa	!	!	!	!	!
1F)	-re-	1d	-re	2f\	-re-	1a	-se-
!	!	!	!	!LO:TX:t=P:problem=kreska pseudotaktowa	!	!	!
.	.	.	.	2f\	-re	.	.
*	*	*	*ij	*	*ij	*	*
(>1F	.	2d\	Mi-	1f	Mi-	2a\	-re-
.	.	2d\	-se-	.	.	2a\	-re
=77-	=77-	=77-	=77-	=77-	=77-	=77-	=77-
1D)	-re	2d\	-re-	1f	-se-	2a\	mi-
!	!	!LO:TX:t=P:problem=kreska pseudotaktowa	!	!	!	!LO:TX:t=P:problem=kreska pseudotaktowa	!
.	.	2d\	-re	.	.	2a\	-se-
(>1D	no-	2d\	Mi-	2f\	-re-	2a\	-re-
!	!	!	!	!LO:TX:t=P:problem=kreska pseudotaktowa	!	!	!
.	.	2d\	-se-	2f\	-re	2a\	-re
*	*	*	*	*	*Xij	*	*
=78-	=78-	=78-	=78-	=78-	=78-	=78-	=78-
2E/)	.	2d\	-re-	1e	no-	2g#X\	no-
2AA/	.	2c\ny	-re	.	.	1a	.
*	*	*	*Xij	*	*	*	*
1E	-bis	1Bn	no-	[>1e	-bis	.	.
.	.	.	.	.	.	2g#X\	.
=79-	=79-	=79-	=79-	=79-	=79-	=79-	=79-
!	!	!LO:TX:t=P:problem=kreska pseudotaktowa	!	!LO:TX:t=P:problem=kreska pseudotaktowa	!	!LO:TX:t=P:problem=kreska pseudotaktowa	!
1AA;>	.	1c	-bis	1e]	.	1a	-bis
!	!	!LO:LB:g=original	!	!LO:TX:t=P:problem=kreska pseudotaktowa	!	!	!
!LO:LB:g=original	!	!LO:TX:a:t=I.	!	!	!	!	!
2.E\	Quo-	1r	.	0r	.	0r	.
4E\	-ni-	.	.	.	.	.	.
=80-	=80-	=80-	=80-	=80-	=80-	=80-	=80-
2F\	-am	2.A/	Quo-	.	.	.	.
2F\	Tu	.	.	.	.	.	.
.	.	4Bn/	-ni-	.	.	.	.
2E\	so-	2c\	-am	2.e\	Quo-	1r	.
2C/	-lus	2c\	Tu	.	.	.	.
.	.	.	.	4e\	-ni-	.	.
=81-	=81-	=81-	=81-	=81-	=81-	=81-	=81-
(>2D/	San-	2c\	so-	2f\	-am	2.a\	Quo-
!LO:TX:t=P:problem=kreska pseudotaktowa	!	!LO:TX:t=P:problem=kreska pseudotaktowa	!	!	!	!	!
2G\)	.	2Bn\	-lus	2d\	tu	.	.
.	.	.	.	.	.	4a\	-ni-
2C,</	-ctus	1c	San-	2e\	so-	2g\ny	-am
!	!	!	!	!LO:TX:t=P:problem=kreska pseudotaktowa	!	!	!
2C/	Tu	.	.	2e\	-lus	2g\	tu
=82-	=82-	=82-	=82-	=82-	=82-	=82-	=82-
2F\	so-	2c\	-ctus	1f	S(an)-	2a\	so-
!	!	!LO:TX:t=P:problem=kreska pseudotaktowa	!	!	!	!	!
2F\	-lus	2c\	Tu	.	.	2a\	-lus
2.D\	Do-	2c\	so-	2f\	-ctus	1a	San-
.	.	2c\	-lus	2f\	Tu	.	.
4D\	-mi-	.	.	.	.	.	.
!	!	!	!	!LO:LB:g=original	!	!LO:LB:g=original	!
=83-	=83-	=83-	=83-	=83-	=83-	=83-	=83-
2G\	-nus	2.Bn\	Do-	2d\	so-	2g,</	-ctus
!LO:TX:t=P:problem=kreska pseudotaktowa	!	!	!	!	!	!	!
2G\	Tu	.	.	2d\	-lus	2g/	tu
!	!	!LO:TX:t=P:problem=kreska pseudotaktowa	!	!	!	!	!
.	.	4B\	-mi-	.	.	.	.
(>4E\	so-	2c,<\	-n(us)	2.e\	Do-	2g/	so-
4F\)	.	.	.	.	.	.	.
(>4E\	-lus	2c\	tu	.	.	2g/	-lus
4D\)	.	.	.	4e\	-mi-	.	.
=84-	=84-	=84-	=84-	=84-	=84-	=84-	=84-
2C/	so-	2c\	so-	2e,<\	-nus	2.g/	Do-
!	!	!	!	!LO:TX:t=P:problem=kreska pseudotaktowa	!	!	!
4C/	-lus	4c\	-lus	2e\	Tu	.	.
!LO:TX:t=P:problem=kreska pseudotaktowa	!	!LO:TX:t=P:problem=kreska pseudotaktowa	!	!	!	!LO:TX:t=P:problem=kreska pseudotaktowa	!
4C/	al-	4c\	al-	.	.	4g/	-mi-
2.G\	-tiſ-	2.Bn\	-tis-	1d	so-	2g/	-n(us)
.	.	.	.	.	.	2g/	Tu
4G\	-si-	4B\	-si-	.	.	.	.
!	!	!LO:LB:g=original	!	!	!	!	!
=85-	=85-	=85-	=85-	=85-	=85-	=85-	=85-
!	!	!	!	!	!	!LO:TX:t=P:problem=kreska pseudotaktowa	!
2G\	-mus	2Bny,<\	-mus	2d\	-lus	1g	so-
2G\	Tu	2B\	Tu	2d\	al-	.	.
2E\	so-	2c\	so-	1e	-tis-	2g/	-lus
4E\	-lus	4c\	-lus	.	.	2g/	al-
4E\	al-	4c\	al-	.	.	.	.
=86-	=86-	=86-	=86-	=86-	=86-	=86-	=86-
2.C/	-tiſ-	2.c\	-tiſ-	2.e\	.	2.g/	-tis-
!	!	!LO:TX:t=P:problem=kreska pseudotaktowa	!	!	!	!LO:TX:t=P:problem=kreska pseudotaktowa	!
4C/	-si	4c\	-si-	4e\	-si-	4g/	-si-
!LO:LB:g=original	!	!	!	!	!	!	!
!LO:TX:t=P:problem=nieczytelne źródło - przybrudzona karta	!	!	!	!LO:TX:t=P:problem=kreska pseudotaktowa	!	!	!
1ryy	.	1Bn	-mus	1d	-mus	1g	-mus
=87-	=87-	=87-	=87-	=87-	=87-	=87-	=87-
!	!	!	!	!	!	!LO:TX:t=P:problem=kreska pseudotaktowa	!
1ryy	.	1Bny	JE-	1d	JE-	1g	JE-
2G\	JE-	1c	-SU	2e\	-SU	1a	-SU
1F\	-SU	.	.	2f\	.	.	.
=88-	=88-	=88-	=88-	=88-	=88-	=88-	=88-
.	.	2d\	Chri-	1g	Chri-	(>2bn\	JE-
*	*ij	*	*	*	*	*	*
!	!	!LO:TX:t=P:problem=kreska pseudotaktowa	!	!	!	!	!
1E\	JE-	2e\	-ste	.	.	2cc\)	.
!	!	!	!	!LO:TX:t=P:problem=kreska pseudotaktowa	!	!	!
.	.	2A/	JE-	1f	-ste	2cc\	-SU
2D/	-SU	2Bn/	-SU	.	.	2dd\	.
*	*Xij	*	*	*	*	*	*
=89-	=89-	=89-	=89-	=89-	=89-	=89-	=89-
1C	JE-	1c	Chri-	1e	JE-	1g	Chri-
!	!	!LO:TX:t=P:problem=kreska pseudotaktowa	!	!	!	!	!
!	!	!	!	!	!	!LO:LB:g=original	!
2C/	-SU	1c	-ste	1e	-SU	1g	-ste
2C/	.	.	.	.	.	.	.
=90-	=90-	=90-	=90-	=90-	=90-	=90-	=90-
*	*	*	*ij	*	*	*	*
2G\	JE-	2Bn\	JE-	2d\	Chri-	2g/	JE-
2C/	-SU	2c\	-SU	2e\	.	2g/	-SU
!	!	!	!	!LO:LB:g=original	!	!	!
1G	X-	2c\	Chri-	1d	-ste	1g	X-
.	.	2Bn\	-ste	.	.	.	.
*	*	*	*Xij	*	*	*	*
=91-	=91-	=91-	=91-	=91-	=91-	=91-	=91-
!	!	!LO:TX:t=P:problem=vide na skanie 0014	!	!	!	!	!
!	!	!LO:TX:b:i:t=vide	!	!	!	!	!
!	!	!LO:TX:t=P:problem=kreska pseudotaktowa	!	!LO:TX:t=P:problem=kreska pseudotaktowa	!	!LO:TX:t=P:problem=kreska pseudotaktowa	!
1C	-te.	1c	.	1e	.	1g	-te
!	!	!LO:LB:g=original	!	!	!	!	!
!	!	!LO:TX:a:t=16	!	!	!	!	!
00r	.	00r	.	00r	.	2r	.
.	.	.	.	.	.	2cc\	Cum
=92-	=92-	=92-	=92-	=92-	=92-	=92-	=92-
.	.	.	.	.	.	2cc\	San-
!	!	!	!	!	!	!LO:TX:t=P:problem=kreska pseudotaktowa	!
.	.	.	.	.	.	2cc\	-cto
.	.	.	.	.	.	4a\	spi-
.	.	.	.	.	.	4a\	-ri-
.	.	.	.	.	.	4a\	-tu
!	!	!	!	!	!	!LO:TX:t=P:problem=kreska pseudotaktowa	!
.	.	.	.	.	.	4a\	in
=93-	=93-	=93-	=93-	=93-	=93-	=93-	=93-
.	.	.	.	.	.	(>4b-y\	glo-
.	.	.	.	.	.	4cc\)	.
.	.	.	.	.	.	4b-\	-ria
!	!	!	!	!	!	!LO:TX:t=P:problem=kreska pseudotaktowa	!
.	.	.	.	.	.	4a\	.
00r	.	00r	.	00r	.	2g\	DE-
.	.	.	.	.	.	(>4cc\	.
.	.	.	.	.	.	4b-\)	-I
=94-	=94-	=94-	=94-	=94-	=94-	=94-	=94-
.	.	.	.	.	.	2a\	Pa-
.	.	.	.	.	.	1b-	.
!	!	!	!	!	!	!LO:TX:t=P:problem=kreska pseudotaktowa	!
.	.	.	.	.	.	2a\	-tris
!	!	!	!	!	!	!LO:LB:g=original	!
=95-	=95-	=95-	=95-	=95-	=95-	=95-	=95-
.	.	.	.	.	.	1g	a-
00rF	.	00rc	.	2r	.	1f	-men
.	.	.	.	2f\	Cum	.	.
=96-	=96-	=96-	=96-	=96-	=96-	=96-	=96-
!	!	!	!	!	!	!LO:TX:t=P:problem=kreska pseudotaktowa	!
!	!	!	!	!	!	!LO:TX:a:t=I.	!
.	.	.	.	2f\	S(an)-	1r	.
!	!	!	!	!LO:TX:t=P:problem=kreska pseudotaktowa	!	!	!
.	.	.	.	2f\	-cto	.	.
.	.	.	.	4e\	Spi-	2cc\	a-
.	.	.	.	4e\	-ri-	.	.
.	.	.	.	4e\	-tu	2cc\	-men
.	.	.	.	4e\	in	.	.
=97-	=97-	=97-	=97-	=97-	=97-	=97-	=97-
*	*	*	*	*	*	*	*ij
.	.	.	.	(>4f\	glo-	2a\	a-
.	.	.	.	4g\)	.	.	.
!	!	!	!	!	!	!LO:TX:t=P:problem=kreska pseudotaktowa	!
.	.	.	.	4f\|	-ri-	2a\	-men
*	*	*	*	*	*	*	*Xij
!	!	!	!	!LO:TX:t=P:problem=kreska pseudotaktowa	!	!	!
.	.	.	.	4e\|	-a	.	.
00rF	.	00rc	.	2d\	De-	2.b-\	A-
.	.	.	.	(>4g\	-i	.	.
.	.	.	.	4f\)	.	4a\	.
=98-	=98-	=98-	=98-	=98-	=98-	=98-	=98-
.	.	.	.	2e\	Pa-	2g\	.
!	!	!	!	!	!	!LO:TX:t=P:problem=kreska pseudotaktowa	!
.	.	.	.	1f	.	2a\	-men
.	.	.	.	.	.	2bn\	a-
.	.	.	.	2e\	-tris	1cc\	.
=99-	=99-	=99-	=99-	=99-	=99-	=99-	=99-
.	.	.	.	1d	a-	.	.
.	.	.	.	.	.	2bn\	.
!	!	!	!	!LO:TX:t=P:problem=kreska pseudotaktowa	!	!LO:TX:t=P:problem=kreska pseudotaktowa	!
00r	.	2r	.	1cny	-men	1cc	-men
.	.	2c\	Cum	.	.	.	.
!	!	!	!	!LO:LB:g=original	!	!	!
=100-	=100-	=100-	=100-	=100-	=100-	=100-	=100-
!	!	!	!	!LO:TX:a:t=I.	!	!LO:TX:a:t=I.	!
.	.	2c\	S(an)-	1r	.	1r	.
!	!	!LO:TX:t=P:problem=kreska pseudotaktowa	!	!	!	!	!
.	.	2c\	-cto	.	.	.	.
.	.	4A/	Spi-	2f\	a-	2r	.
.	.	4A/	-ri-	.	.	.	.
.	.	4A/	-tu	2f\	-men	2cc\	in
.	.	4A/	in	.	.	.	.
=101-	=101-	=101-	=101-	=101-	=101-	=101-	=101-
*	*	*	*	*	*ij	*	*
.	.	4B-y/	glo-	2d\	a-	2f/	glo-
.	.	4c/	.	.	.	.	.
.	.	4B-/	-ri-	2d\	-men	4f/	-ri-
*	*	*	*	*	*Xij	*	*
!	!	!LO:TX:t=P:problem=kreska pseudotaktowa	!	!	!	!	!
.	.	4A/	-a	.	.	4f/	-a
!LO:TX:t=P:problem=kreska pseudotaktowa	!	!	!	!	!	!LO:LB:g=original	!
00r	.	2G/	De-	2.e-X\	A-	2g/	De-
.	.	4c\	-i	.	.	2g/	-i
.	.	4B-\	.	4d\	.	.	.
=102-	=102-	=102-	=102-	=102-	=102-	=102-	=102-
.	.	2A\	Pa-	2c\	.	4g/	Pa-
.	.	.	.	.	.	4g/	-tris
!	!	!LO:TX:t=P:problem=kreska pseudotaktowa	!	!LO:TX:t=P:problem=kreska pseudotaktowa	!	!	!
.	.	[<2B-\	-tris	2d\	.	4f/	De-
!	!	!	!	!	!	!LO:TX:t=P:problem=kreska pseudotaktowa	!
.	.	.	.	.	.	4f/	-i
.	.	2B-\]	.	2en\	.	2g/	Pa-
.	.	2A\	a-	1f\	.	2a/	-tris
=103-	=103-	=103-	=103-	=103-	=103-	=103-	=103-
.	.	1G	-men	.	.	2b-y\	a-
.	.	.	.	2eny\	.	2g/	.
!	!	!LO:TX:t=P:problem=kreska pseudotaktowa	!	!LO:TX:t=P:problem=kreska pseudotaktowa	!	!LO:TX:t=P:problem=kreska pseudotaktowa	!
2r	.	1F	.	1f	-men	1a	-men
2F\	Cum	.	.	.	.	.	.
=104-	=104-	=104-	=104-	=104-	=104-	=104-	=104-
!	!	!LO:TX:a:t=I.	!	!	!	!	!
2F\	S(an)-	1r	.	1r	.	0r	.
!LO:TX:t=P:problem=kreska pseudotaktowa	!	!	!	!	!	!	!
2F\	-cto	.	.	.	.	.	.
4E\	Spi-	2c\	a-	2r	.	.	.
4E\	-ri-	.	.	.	.	.	.
4E\	-tu	2c\	-(men)	2g\	in	.	.
4E\	in	.	.	.	.	.	.
=105-	=105-	=105-	=105-	=105-	=105-	=105-	=105-
*	*	*	*ij	*	*	*	*
(>4F\	glo-	2A/	a-	2c/	glo-	2r	.
4G\)	.	.	.	.	.	.	.
!	!	!LO:TX:t=P:problem=kreska pseudotaktowa	!	!	!	!	!
(>4F\	-ria	2A/	-(men)	4c/	-ri-	1f	A-
*custos:D	*	*	*	*	*	*	*
!LO:TX:t=P:problem=kreska pseudotaktowa	!	!	!	!LO:TX:t=P:problem=kreska pseudotaktowa	!	!	!
4E\)	.	.	.	4c/	-a	.	.
!LO:PB:g=original	!	!	!	!	!	!	!
2D\	DE-	2.B-\	a-	2d\	De-	.	.
4G\	-I	.	.	2d\	-i	1b-\	-men
4F\	.	4A/	-(men)	.	.	.	.
=106-	=106-	=106-	=106-	=106-	=106-	=106-	=106-
2E\	Pa-	2G/	a-	4d\	Pa-	.	.
.	.	.	.	4d\	-tris	.	.
!	!	!LO:TX:t=P:problem=kreska pseudotaktowa	!	!	!	!LO:TX:t=P:problem=kreska pseudotaktowa	!
1F	-tris	2A/	-(men)	4c\	De-	2a\	.
!	!	!	!	!LO:TX:t=P:problem=kreska pseudotaktowa	!	!	!
.	.	.	.	4c\	-i	.	.
!	!	!	!	!LO:LB:g=original	!	!	!
.	.	2Bn\	a-	2d\	Pa-	2g/	Pa-
2E\	.	1c\	-(men)	2e\	-tris	2g/	-tris
=107-	=107-	=107-	=107-	=107-	=107-	=107-	=107-
!LO:TX:t=P:problem=kreska pseudotaktowa	!	!	!	!	!	!	!
1D	a-	.	.	2f\	a-	2a\	A-
.	.	2Bn\	a-	2d\	-men	2dd\	.
!	!	!LO:TX:t=P:problem=kreska pseudotaktowa	!	!LO:TX:t=P:problem=kreska pseudotaktowa	!	!LO:TX:t=P:problem=kreska pseudotaktowa	!
2C,</	-men	1c	-m(en)	1e	.	1g	-men
*	*	*	*Xij	*	*	*	*
2C/	in	.	.	.	.	.	.
!	!	!	!	!	!	!LO:LB:g=original	!
=108-	=108-	=108-	=108-	=108-	=108-	=108-	=108-
!	!	!	!	!LO:TX:t=P:problem=kreska pseudotaktowa	!	!	!
2F\	glo-	2rF	.	1r	.	0r	.
4F\	-ri-	2F/	in	.	.	.	.
4F\	-a	.	.	.	.	.	.
2E\	DE-	2c\	glo-	2r	.	.	.
2E\	-I	4c\	-ri-	2c\	in	.	.
.	.	4c\	-a	.	.	.	.
=109-	=109-	=109-	=109-	=109-	=109-	=109-	=109-
2D\	Pa-	2d\	De-	2f\	glo-	2r	.
*	*	*custos:G	*	*	*	*	*
!LO:TX:t=P:problem=kreska pseudotaktowa	!	!	!	!	!	!	!
2D\	-tris	2d\	-i	4f\	-ri-	2f/	in
!	!	!	!	!LO:TX:t=P:problem=kreska pseudotaktowa	!	!	!
.	.	.	.	4f\	-a	.	.
!	!	!LO:LB:g=original	!	!	!	!	!
1E	DE-	2G/	Pa-	2e\	De-	2cc\	Glo-
.	.	2G/	-tris	2e\	-i	4cc\	-ri-
.	.	.	.	.	.	4cc\	-a
=110-	=110-	=110-	=110-	=110-	=110-	=110-	=110-
1F	-I	2A/	De-	2c/	Pa-	2f/	De-
!	!	!LO:TX:t=P:problem=kreska pseudotaktowa	!	!LO:TX:t=P:problem=kreska pseudotaktowa	!	!	!
.	.	2A/	-i	2c/	-tris	2f/	-i
(>2F\	Pa-	2Bn\	Pa-	2d\	De-	1g	Pa-
2E\)	.	1c\	-tris	2e\	.	.	.
=111-	=111-	=111-	=111-	=111-	=111-	=111-	=111-
!	!	!	!	!	!	!LO:TX:t=P:problem=kreska pseudotaktowa	!
1D	-tris	.	.	2f\	-i	1a	-tris
!	!	!LO:TX:t=P:problem=kreska pseudotaktowa	!	!	!	!	!
.	.	2Bny\	.	2f\	Pa-	.	.
2E\	A-	2B\	a-	2e\	.	2g#X/	A-
2AA/	-men	2c\	.	2e\	-tris	1a\	.
=112-	=112-	=112-	=112-	=112-	=112-	=112-	=112-
*	*ij	*	*	*	*	*	*
1E	A-	1Bn	.	1e	a-	.	.
!	!	!	!	!	!	!LO:TX:t=P:problem=kreska pseudotaktowa	!
.	.	.	.	.	.	2g#X/	-men
!LO:TX:t=P:problem=kreska pseudotaktowa	!	!LO:TX:t=P:problem=kreska pseudotaktowa	!	!LO:TX:t=P:problem=kreska pseudotaktowa	!	!	!
1AA	-men	1c	-men	1e	-men	2a,<\	.
*	*Xij	*	*	*	*	*	*
.	.	.	.	.	.	2cc\	Cum
=113-	=113-	=113-	=113-	=113-	=113-	=113-	=113-
!LO:TX:t=P:problem=kreska pseudotaktowa	!	!	!	!	!	!	!
!LO:TX:a:t=I.	!	!	!	!LO:TX:t=P:problem=kreska pseudotaktowa	!	!	!
1r	.	1r	.	0r	.	2cc\	S(an)-
!	!	!	!	!	!	!LO:TX:t=P:problem=kreska pseudotaktowa	!
.	.	.	.	.	.	2cc\	-cto
!LO:LB:g=original	!	!	!	!	!	!	!
2F\	a-	2r	.	.	.	4a\	Spi-
.	.	.	.	.	.	4a\	-ri-
2F\	-men	2c\	in	.	.	4a\	-tu
!	!	!	!	!	!	!LO:TX:t=P:problem=kreska pseudotaktowa	!
.	.	.	.	.	.	4a\	in
!	!	!	!	!LO:PB:g=original	!	!LO:PB:g=original	!
=114-	=114-	=114-	=114-	=114-	=114-	=114-	=114-
*	*ij	*	*	*	*	*	*
!	!	!	!	!LO:TX:t=P:problem=w źródle na oryginalny tekst muzyczny naklejona kartka z pustą pięciolinią	!	!	!
2D\	a-	2F/	Glo-	0ryy	.	4b-\	glo-
.	.	.	.	.	.	4cc\	-ri-
2D\	-men	4F/	-ri-	.	.	4b-\	-a
!	!	!LO:TX:t=P:problem=kreska pseudotaktowa	!	!	!	!	!
.	.	4F/	-a	.	.	4a\	.
2.E-X\	a-	2G/	De-	.	.	2g\ny	De-
.	.	2G/	-i	.	.	4cc\	-i
!	!	!	!	!	!	!LO:TX:t=P:problem=kreska pseudotaktowa	!
4D/	.	.	.	.	.	4b-\	.
=115-	=115-	=115-	=115-	=115-	=115-	=115-	=115-
2C/	-men	4G/	Pa-	0ryy	.	2a\	Pa-
.	.	4G/	-tris	.	.	.	.
!LO:TX:t=P:problem=kreska pseudotaktowa	!	!	!	!	!	!	!
2D/	.	4F/	De-	.	.	1b-	.
!	!	!LO:TX:t=P:problem=kreska pseudotaktowa	!	!	!	!	!
.	.	4F/	-i	.	.	.	.
!	!	!LO:LB:g=original	!	!	!	!	!
2E\ny	a-	2G/	Pa-	.	.	.	.
1F\	.	2A/	-tris	.	.	2a\	-tris
=116-	=116-	=116-	=116-	=116-	=116-	=116-	=116-
.	.	2B-y/	A-	0ryy	.	1g	a-
2E\	-men	2G/	-men.	.	.	.	.
*	*Xij	*	*	*	*	*	*
!LO:TX:t=P:problem=kreska pseudotaktowa	!	!LO:TX:t=P:problem=kreska pseudotaktowa	!	!	!	!LO:TX:t=P:problem=kreska pseudotaktowa	!
1F	.	1A	.	.	.	1f	-men
=117-	=117-	=117-	=117-	=117-	=117-	=117-	=117-
!	!	!	!	!	!	!LO:TX:t=P:problem=kreska pseudotaktowa	!
!	!	!LO:TX:t=P:problem=kreska pseudotaktowa	!	!	!	!LO:TX:a:t=I.	!
1r	.	0r	.	0ryy	.	1r	.
2r	.	.	.	.	.	2cc\	A-
2c\	in	.	.	.	.	2cc\	-men
=118-	=118-	=118-	=118-	=118-	=118-	=118-	=118-
*	*	*	*	*	*	*	*ij
2F\	Glo-	1c	A-	0ryy	.	2a\	A-
!	!	!	!	!	!	!LO:TX:t=P:problem=kreska pseudotaktowa	!
4F\	-ri-	.	.	.	.	2a\	-men
!LO:TX:t=P:problem=kreska pseudotaktowa	!	!	!	!	!	!	!
4F\	-a	.	.	.	.	.	.
2G\	DE-	1B-	.	.	.	2.b-\	A-
2G\	-I	.	.	.	.	.	.
.	.	.	.	.	.	4a\	-men
=119-	=119-	=119-	=119-	=119-	=119-	=119-	=119-
4G\	De-	2c\	-men	0ryy	.	2g/	A-
4G\	-i	.	.	.	.	.	.
!	!	!LO:TX:t=P:problem=kreska pseudotaktowa	!	!	!	!LO:TX:t=P:problem=kreska pseudotaktowa	!
4F\	Pa-	2c\	.	.	.	2g/	-men
*	*	*	*	*	*	*	*Xij
4F\	-tris	.	.	.	.	.	.
2G\	a-	0r	.	.	.	2bn\	A-
2A\	.	.	.	.	.	1cc\	.
=120-	=120-	=120-	=120-	=120-	=120-	=120-	=120-
2B-X\	-men	.	.	0ryy	.	.	.
!LO:TX:t=P:problem=kreska pseudotaktowa	!	!	!	!	!	!LO:TX:t=P:problem=kreska pseudotaktowa	!
2G\	.	.	.	.	.	2bn\	.
*	*ij	*	*	*	*	*	*
!LO:LB:g=original	!	!	!	!	!	!LO:LB:g=original	!
2A\	a-	2r	.	.	.	1cc	-men
4A\	.	2c\	Cum	.	.	.	.
4G\	-men	.	.	.	.	.	.
=121-	=121-	=121-	=121-	=121-	=121-	=121-	=121-
2F\	.	2c\	S(an)-	0ryy	.	1r	.
!	!	!LO:TX:t=P:problem=kreska pseudotaktowa	!	!	!	!	!
2E\	a-	2c\	-cto	.	.	.	.
!LO:TX:t=P:problem=kreska pseudotaktowa	!	!	!	!	!	!	!
1F	-men	4A/	Spi-	.	.	2r	.
*	*Xij	*	*	*	*	*	*
.	.	4A/	-ri-	.	.	.	.
.	.	4A/	-tu	.	.	2cc\	in
.	.	4A/	in	.	.	.	.
=122-	=122-	=122-	=122-	=122-	=122-	=122-	=122-
00r	.	(>4B-\	Glo-	0ryy	.	2f/	glo-
.	.	4c\)	.	.	.	.	.
.	.	(>4B-\	-ria	.	.	4f/	-ri-
!	!	!LO:TX:t=P:problem=kreska pseudotaktowa	!	!	!	!LO:TX:t=P:problem=kreska pseudotaktowa	!
.	.	4A\)	.	.	.	4f/	-a
!	!	!LO:LB:g=original	!	!	!	!	!
.	.	2G/	De-	.	.	2g/	De-
.	.	4c\	.	.	.	2g/	-i
.	.	4B-\	-i	.	.	.	.
=123-	=123-	=123-	=123-	=123-	=123-	=123-	=123-
.	.	2A\	Pa-	0ryy	.	4g/	Pa-
.	.	.	.	.	.	4g/	-tris
!	!	!LO:TX:t=P:problem=kreska pseudotaktowa	!	!	!	!	!
.	.	[<2B-\	.	.	.	4f/	De-
!	!	!	!	!	!	!LO:TX:t=P:problem=kreska pseudotaktowa	!
.	.	.	.	.	.	4f/	-i
.	.	2B-\]	.	.	.	2g/	Pa-
.	.	2A\	-tris	.	.	2a/	-tris
=124-	=124-	=124-	=124-	=124-	=124-	=124-	=124-
1r	.	1G	a-	0ryy	.	(>2b-y\	a-
.	.	.	.	.	.	2g/)	.
!	!	!LO:TX:t=P:problem=kreska pseudotaktowa	!	!	!	!LO:TX:t=P:problem=kreska pseudotaktowa	!
2r	.	1F	-men	.	.	1a	-men
2F\	Cum	.	.	.	.	.	.
=125-	=125-	=125-	=125-	=125-	=125-	=125-	=125-
!	!	!LO:TX:t=P:problem=kreska pseudotaktowa	!	!	!	!	!
2F\	S(an)-	1r	.	0ryy	.	0r	.
!LO:TX:t=P:problem=kreska pseudotaktowa	!	!	!	!	!	!	!
2F\	-cto	.	.	.	.	.	.
4E\	Spi-	2c\	A-	.	.	.	.
4E\	-ri-	.	.	.	.	.	.
4E\	-tu	2c\	-men	.	.	.	.
4E\	in	.	.	.	.	.	.
=126-	=126-	=126-	=126-	=126-	=126-	=126-	=126-
*	*	*	*ij	*	*	*	*
4F\	glo-	2A/	A-	0ryy	.	2r	.
(>4G\	.	.	.	.	.	.	.
!	!	!LO:TX:t=P:problem=kreska pseudotaktowa	!	!	!	!	!
(>4F\)	-ria	2A/	-men	.	.	1f	a-
*	*	*	*Xij	*	*	*	*
4E\)	.	.	.	.	.	.	.
2D\	De-	2.B-\	a-	.	.	.	.
(>4G\	-i	.	.	.	.	1b-\	.
4F\)	.	4A/	.	.	.	.	.
=127-	=127-	=127-	=127-	=127-	=127-	=127-	=127-
(>2E\	Pa-	2G/	-men	0ryy	.	.	.
!LO:TX:t=P:problem=kreska pseudotaktowa	!	!LO:TX:t=P:problem=kreska pseudotaktowa	!	!	!	!LO:TX:t=P:problem=kreska pseudotaktowa	!
2F\)	.	2A/	.	.	.	2a\	-men
*	*	*	*ij	*	*	*	*
!	!	!	!	!	!	!LO:LB:g=original	!
(2F\	-tris	2Bn\	a-	.	.	1g	a-
2E\)	.	1c\	.	.	.	.	.
=128-	=128-	=128-	=128-	=128-	=128-	=128-	=128-
1D	a-	.	.	0ryy	.	2a\	.
.	.	2Bn\	-men	.	.	2dd\	-men
*	*	*	*Xij	*	*	*	*
!	!	!LO:TX:t=P:problem=kreska pseudotaktowa	!	!	!	!LO:TX:t=P:problem=kreska pseudotaktowa	!
2C/	-men	1c	.	.	.	1g	.
!LO:TX:t=P:problem=kreska pseudotaktowa	!	!	!	!	!	!	!
2C/	in	.	.	.	.	.	.
!LO:LB:g=original	!	!LO:PB:g=original	!	!	!	!	!
=129-	=129-	=129-	=129-	=129-	=129-	=129-	=129-
2F\	glo-	2r	.	0ryy	.	0r	.
4F\	-ri-	2F/	in	.	.	.	.
4F\	-a	.	.	.	.	.	.
2E\	DE-	2c\	glo-	.	.	.	.
2E\	-I	4c\	-ri-	.	.	.	.
.	.	4c\	-a	.	.	.	.
=130-	=130-	=130-	=130-	=130-	=130-	=130-	=130-
2D\	Pa-	2d\	De-	0ryy	.	2r	.
!LO:TX:t=P:problem=kreska pseudotaktowa	!	!	!	!	!	!	!
2D\	-tris	2d\	-i	.	.	2f/	in
!LO:TX:t=P:problem=kreska pseudotaktowa	!	!	!	!	!	!	!
1r	.	2c\	Pa-	.	.	2g/	glo-
.	.	2c\	-tris	.	.	4g/	-ri-
.	.	.	.	.	.	4g/	-a
=131-	=131-	=131-	=131-	=131-	=131-	=131-	=131-
2F\	DE-	2c\	De-	0ryy	.	2a\	De-
!	!	!LO:TX:t=P:problem=kreska pseudotaktowa	!	!	!	!LO:TX:t=P:problem=kreska pseudotaktowa	!
2F\	-I	2c\	-i	.	.	2a\	-i
2BB-/	Pa-	2d\	Pa-	.	.	2b-\	Pa-
2BB-/	-tris	2d\	-tris	.	.	2b-\	-tris
=132-	=132-	=132-	=132-	=132-	=132-	=132-	=132-
2C/	a-	1c	a-	1ryy	.	2b-\	a-
!	!	!	!	!	!	!LO:TX:t=P:problem=kreska pseudotaktowa	!
2F\	-men	.	.	.	.	2a\	.
*	*ij	*	*	*	*	*	*
!	!	!	!	!LO:LB:g=original	!	!	!
1C	a-	1c	.	2f\	.	1g	-men
.	.	.	.	2e\	.	.	.
=133-	=133-	=133-	=133-	=133-	=133-	=133-	=133-
!	!	!LO:TX:t=P:problem=kreska pseudotaktowa	!	!	!	!	!
1F	-men	1c	-men	2f\	men	1a	.
!	!	!	!	!LO:TX:t=P:problem=kreska pseudotaktowa	!	!	!
.	.	.	.	2f\	.	.	.
*	*	*	*	*	*	*	*ij
!	!	!	!	!	!	!LO:TX:t=P:problem=kreska pseudotaktowa	!
1C	a-	1c	a-	2f\	a-	0a	a-
.	.	.	.	4e\	.	.	.
.	.	.	.	4d\	.	.	.
=134-	=134-	=134-	=134-	=134-	=134-	=134-	=134-
1C	-men	1c	.	1e	.	.	.
*	*Xij	*	*	*	*	*	*
!	!	!LO:TX:a:t=C.	!	!	!	!	!
!LO:TX:t=P:problem=końcowa kreska pseudotaktowa	!	!LO:TX:t=P:problem=końcowa kreska pseudotaktowa	!	!LO:TX:t=P:problem=końcowa kreska pseudotaktowa	!	!LO:TX:t=P:problem=końcowa kreska pseudotaktowa	!
00F;>	.	00c;>	-men.	00f	-men.	00a;>	-men
*	*	*	*	*	*	*	*Xij
==-	==-	==-	==-	==-	==-	==-	==-
*-	*-	*-	*-	*-	*-	*-	*-
!!!system-decoration: [(s1,s2,s3,s4)]
!!!RDF**kern: | = vertical stroke
!!!RDF**kern: > = above
!!!RDF**kern: < = below
!!!EED: Antoni Szymański
!!!EEV: 2021-08-03
!!!ENC: Anastazja Marusiak
!!!END: 2021-07-07
!!!YEC: Copyright 2022 Narodowy Instytut Fryderyka Chopina (https://polishscores.org)
!!!YEM: License CC-BY-4.0 (https://creativecommons.org/licenses/by/4.0)
